static/img/footer/linkedin.svg

<svg width="24" height="24" viewBox="0 0 24 24" fill="none" xmlns="http://www.w3.org/2000/svg">
<g clip-path="url(#clip0_1142_1880)">
<path fill-rule="evenodd" clip-rule="evenodd" d="M0 12C0 5.37267 5.37267 0 12 0C18.6273 0 24 5.37267 24 12C24 18.6273 18.6273 24 12 24C5.37267 24 0 18.6273 0 12Z" fill="#0077B5"/>
<path fill-rule="evenodd" clip-rule="evenodd" d="M8.48156 9.93867V18.11H5.76223V9.93867H8.48156ZM8.66156 7.41133C8.66156 8.196 8.07023 8.824 7.12156 8.824H7.1049C6.19156 8.824 5.60156 8.196 5.60156 7.41133C5.60156 6.61 6.20956 6 7.14023 6C8.07023 6 8.64423 6.61 8.66156 7.41133ZM18.2896 13.4247V18.11H15.5696V13.7387C15.5696 12.6407 15.1762 11.8913 14.1916 11.8913C13.4402 11.8913 12.9929 12.396 12.7962 12.8847C12.7242 13.0587 12.7069 13.3027 12.7069 13.5467V18.11H9.9869C9.9869 18.11 10.0229 10.706 9.9869 9.93933H12.7069V11.0967C13.0676 10.54 13.7142 9.74733 15.1582 9.74733C16.9476 9.74733 18.2896 10.9153 18.2896 13.4247Z" fill="white"/>
</g>
<defs>
<clipPath id="clip0_1142_1880">
<rect width="24" height="24" fill="white"/>
</clipPath>
</defs>
</svg>

<svg xmlns="http://www.w3.org/2000/svg" width="24" height="24" fill="none" viewBox="0 0 24 24"><g fill-rule="evenodd" clip-path="url(#a)" clip-rule="evenodd"><path fill="#0077b5" d="M0 12C0 5.373 5.373 0 12 0s12 5.373 12 12-5.373 12-12 12S0 18.627 0 12"/><path fill="#fff" d="M8.482 9.939v8.171h-2.72V9.939zm.18-2.528c0 .785-.592 1.413-1.54 1.413h-.017c-.913 0-1.503-.628-1.503-1.413C5.602 6.61 6.21 6 7.14 6s1.504.61 1.522 1.411m9.628 6.014v4.685h-2.72v-4.371c0-1.098-.394-1.848-1.378-1.848-.752 0-1.2.505-1.396.994-.072.174-.09.418-.09.662v4.563h-2.72s.037-7.404 0-8.17h2.72v1.157c.362-.557 1.008-1.35 2.452-1.35 1.79 0 3.132 1.168 3.132 3.678"/></g><defs><clipPath id="a"><path fill="#fff" d="M0 0h24v24H0z"/></clipPath></defs></svg>
